public/images/icons/32x32/decouvrir_32_purple.svg

<svg height="32" viewBox="0 0 32 32" width="32" xmlns="http://www.w3.org/2000/svg"><g fill="#1e1169" fill-rule="evenodd" stroke="#1e1169" stroke-width=".1" transform="translate(3.5 4.3)"><path d="m24.8430402 8.61148397-2.788068-7.71147313c-.2497673-.6914081-1.0154569-1.05071986-1.7070601-.8005624-.5911793.2137727-.938883.8045618-.8712347 1.40373988l-1.5340617.55445311c-.192215.06950173-.2917122.28176245-.2223568.47397742.0695505.19245883.2818112.29190727.4740262.22235676l1.4995791-.54221105 2.4946976 6.9008147-6.4440054 2.32984434c-.8024646-1.3595514-2.4860648-2.00311305-4.0235894-1.44714797-.7033575.25415687-1.2696137.72091587-1.6531169 1.30141377l-1.35004068-3.73343786c-.24367063-.67443504.10671564-1.42163962.78134578-1.66570043l6.6834328-2.4592502c.19241-.0695505.2918585-.28176246.2221129-.47402619-.0693067-.19221497-.2817625-.29166341-.4739774-.2221129l-6.68343282 2.45925019c-1.05852356.38291796-1.6081969 1.55537559-1.22562035 2.61370405l.12783441.35380039-5.64358934 2.04008305c-.30863646-.57059697-.99775222-.84606769-1.62590155-.61917502-.6914081.25015746-1.05032967 1.01584702-.8005624 1.70725512l1.21952371 3.3729556c.19601927.5424062.70911275.8800139 1.25512811.8800139.14992864 0 .30293-.0253133.45193196-.0792564.33492518-.1211525.6025922-.3654084.75388649-.6879452.12266446-.2617655.15680566-.5494782.10037513-.8278266l5.64339425-2.0400831.12598104.3484841c-.17699775.6442933-.16480446 1.3471631.07906126 2.0221346.2642529.7306705.7618853 1.333848 1.418762 1.7288129l-1.82670058 3.9555508h-1.56493512c-.77446876 0-1.40432515.6298564-1.40432515 1.4041301 0 .7744687.63005148 1.4045202 1.40432515 1.4045202h.29571158c.20421315 0 .37018817-.1657311.37018817-.3701881 0-.2046034-.16597502-.3701394-.37018817-.3701394h-.29571158c-.36614 0-.66414391-.2978089-.66414391-.6641927 0-.3659937.29800391-.6637537.66414391-.6637537h1.79948517l6.64724313.000195 1.8015336-.000195c.3661888 0 .6638025.29776.6638025.6637537 0 .3663838-.2976137.6641927-.6638025.6641927h-7.1947352c-.2044083 0-.3701882.165536-.3701882.3701394 0 .204457.1657799.3701881.3701882.3701881h7.1947352c.7744688 0 1.4045203-.6300515 1.4045203-1.4045202 0-.7742737-.6302466-1.4041301-1.4045203-1.4041301h-1.5648863l-1.8267494-3.9555508c1.3075593-.7889544 1.9385862-2.3986632 1.456171-3.8946331l6.4258618-2.32321124c.247475.37687014.6708259.60166554 1.1158808.60166554.1501238 0 .30293-.0257035.4518832-.0794515.334974-.1211525.602641-.36521328.7538865-.68775009.1512943-.3225368.1678772-.68453108.046871-1.01950504zm-21.75355412 5.85697183c-.06706308.1434906-.1861671.2522547-.33512028.3060027-.30751468.1110565-.64814632-.048578-.75905645-.3558976l-1.21952371-3.3729556c-.11105645-.3075147.04857805-.6481463.35589764-.7594466.06647779-.0238013.13432124-.0352142.20099412-.0352142.24293904 0 .47095349.1503188.55840374.391502l1.21932861 3.3727605c.0539431.1490019.04652958.3100021-.02092367.4532488zm.53289537-1.2145488-.85070119-2.3534994 5.62949391-2.03510819.85084751 2.35349929zm6.49404665 6.7162083 1.6832588-3.6452073c.3438507.1156411.7005287.1739251 1.0581334.1739251.3570194 0 .7148192-.058479 1.0621327-.1745104l1.6838441 3.6455975h-5.487369zm3.6311119-4.3688057c-.6508289.2352817-1.353845.2047985-1.9817992-.0851579 0 0-.0001951-.0001951-.0003414-.0001951-.0001951 0-.0003902-.000195-.0007804-.0003901-.0043896-.0019022-.0087792-.0036093-.0129737-.0057065-.6311732-.296053-1.1093939-.8203643-1.3465777-1.4759729-.48924342-1.3536499.2139678-2.8530339 1.5674225-3.3424724.2920536-.1055451.5909842-.15544.88494-.15544 1.0688147 0 2.0738341.6614614 2.4575324 1.7230577.4892434 1.3534547-.2139678 2.8530338-1.5674225 3.3422772zm10.3781936-6.28466351c-.0670631.14344182-.1861184.25205962-.3351203.30575885-.3074659.11105645-.6481463-.04857805-.7592028-.35589764l-2.7878729-7.71166822c-.1111053-.30751468.0487731-.64795123.3560439-.75905645.0663315-.02419148.1341262-.0354093.2008478-.0354093.2428903 0 .4711486.15031883.5584038.39130693l2.7876778 7.711717c.0539431.14875809.0466759.30995333-.0207773.45324883z"/><path d="m12.259764 11.4860756c-.4433479.1602197-.798075.483732-.9982888.9108872-.2002625.426765-.2219665.9061075-.0617468 1.3496505.1602198.4434942.4837321.7980749.9106922.9982887.2381593.1116417.4928526.1678772.7483751.1678772.2025061 0 .4054024-.035263.6014704-.1061304.4432992-.1602198.798075-.483732.9982888-.9106922.2000674-.426765.2219666-.9061074.0617468-1.3498455-.3311209-.9154232-1.3450658-1.3911564-2.2605377-1.0600355zm1.5281601 2.0955381c-.1160313.2478651-.3217564.4356905-.5795712.5287009-.2573759.0931567-.5357243.0803782-.7835894-.0360433-.2478651-.1159826-.4357393-.3217565-.5287009-.5795225-.0931567-.2574247-.0803781-.535773.0358483-.7836382.1161776-.2478651.3221466-.4356905.5797176-.5287008.1145193-.041506.2318675-.0611616.3473135-.0611616.4197417 0 .8145116.2599121.9650255.6767274.0931567.2574247.0803781.535773-.0360434.7836381z"/></g></svg>

<svg xmlns="http://www.w3.org/2000/svg" width="32" height="32" viewBox="0 0 32 32">
  <g fill="#1E1169" fill-rule="evenodd" stroke="#1E1169" stroke-width=".3" transform="translate(3.5 4.32)">
    <path d="M24.8430246,8.5916267 L22.0549565,0.880153573 C21.8051893,0.188745474 21.0394997,-0.170566283 20.3478965,0.0795911761 C19.7567172,0.293363869 19.4090134,0.88415297 19.4766618,1.48333105 L17.9426001,2.03778416 C17.7503851,2.10728589 17.6508879,2.31954662 17.7202433,2.51176158 C17.7897938,2.70422041 18.0020545,2.80366885 18.1942695,2.73411835 L19.6938486,2.1919073 L22.1885462,9.09272199 L15.7445408,11.4225663 C14.9420762,10.0630149 13.258476,9.41945329 11.7209514,9.97541836 C11.0175939,10.2295752 10.4513377,10.6963342 10.0678345,11.2768322 L8.71779381,7.54339428 C8.47412318,6.86895923 8.82450945,6.12175466 9.49913959,5.87769384 L16.1825724,3.41844364 C16.3749824,3.34889314 16.4744309,3.13668119 16.4046853,2.94441745 C16.3353786,2.75220249 16.1229228,2.65275405 15.9307079,2.72230455 L9.24727507,5.18155475 C8.18875151,5.56447271 7.63907817,6.73693033 8.02165472,7.7952588 L8.14948913,8.14905919 L2.50589979,10.1891423 C2.19726333,9.61854526 1.50814757,9.34307454 0.879998235,9.56996721 C0.188590137,9.82012467 -0.170331435,10.5858143 0.0794358389,11.2772224 L1.29895955,14.650178 C1.49497882,15.1925841 2.0080723,15.5301918 2.55408765,15.5301918 C2.7040163,15.5301918 2.85701765,15.5048785 3.00601961,15.4509354 C3.3409448,15.329783 3.60861181,15.085527 3.75990611,14.7629902 C3.88257057,14.5012248 3.91671177,14.213512 3.86028124,13.9351637 L9.50367549,11.8950806 L9.62965652,12.2435647 C9.45265878,12.8878579 9.46485207,13.5907277 9.70871779,14.2656993 C9.97297069,14.9963697 10.4706031,15.5995472 11.1274798,15.9945121 L9.30077921,19.950063 L7.73584409,19.950063 C6.96137532,19.950063 6.33151893,20.5799193 6.33151893,21.354193 C6.33151893,22.1286618 6.96157042,22.7587133 7.73584409,22.7587133 L8.03155566,22.7587133 C8.23576882,22.7587133 8.40174383,22.5929821 8.40174383,22.3885251 C8.40174383,22.1839217 8.23576882,22.0183857 8.03155566,22.0183857 L7.73584409,22.0183857 C7.36970409,22.0183857 7.07170018,21.7205769 7.07170018,21.354193 C7.07170018,20.9881993 7.36970409,20.6904393 7.73584409,20.6904393 L9.53532926,20.6904393 L16.1825724,20.6906344 L17.984106,20.6904393 C18.3502948,20.6904393 18.6479085,20.9881993 18.6479085,21.354193 C18.6479085,21.7205769 18.3502948,22.0183857 17.984106,22.0183857 L10.7893707,22.0183857 C10.5849625,22.0183857 10.4191826,22.1839217 10.4191826,22.3885251 C10.4191826,22.5929821 10.5849625,22.7587133 10.7893707,22.7587133 L17.984106,22.7587133 C18.7585748,22.7587133 19.3886263,22.1286618 19.3886263,21.354193 C19.3886263,20.5799193 18.7583797,19.950063 17.984106,19.950063 L16.4192197,19.950063 L14.5924703,15.9945121 C15.9000295,15.2055578 16.5310565,13.5958489 16.0486413,12.099879 L22.4745031,9.7766678 C22.7219781,10.1535379 23.145329,10.3783333 23.5903839,10.3783333 C23.7405076,10.3783333 23.8933139,10.3526299 24.0422671,10.2988819 C24.377241,10.1777294 24.6449081,9.93366855 24.7961536,9.61113175 C24.9474479,9.28859494 24.9640308,8.92660066 24.8430246,8.5916267 Z M3.08947046,14.4485986 C3.02240739,14.5920891 2.90330337,14.7008533 2.75435018,14.7546013 C2.44683551,14.8656577 2.10620387,14.7060232 1.99529373,14.3987036 L0.775770025,11.025748 C0.664713575,10.7182334 0.824348077,10.3776017 1.13166766,10.2663014 C1.19814546,10.2425001 1.2659889,10.2310872 1.33266179,10.2310872 C1.57560082,10.2310872 1.80361528,10.381406 1.89106552,10.6225892 L3.11039414,13.9953497 C3.16433724,14.1443517 3.15692372,14.3053518 3.08947046,14.4485986 Z M3.62236584,13.2340497 L2.77166465,10.8805504 L8.40115855,8.84544215 L9.25200606,11.1989415 L3.62236584,13.2340497 Z M10.1164125,19.950258 L11.7996713,16.3050508 C12.1435219,16.4206919 12.5002,16.4789758 12.8578046,16.4789758 C13.2148241,16.4789758 13.5726239,16.4204968 13.9199374,16.3044655 L15.6037815,19.950063 L10.1164125,19.950063 L10.1164125,19.950258 Z M13.7475244,15.5814524 C13.0966955,15.816734 12.3936794,15.7862508 11.7657252,15.4962945 C11.7657252,15.4962945 11.7655301,15.4960994 11.7653838,15.4960994 C11.7651887,15.4960994 11.7649936,15.4959043 11.7646034,15.4957092 C11.7602138,15.493807 11.7558242,15.4921 11.7516297,15.4900027 C11.1204565,15.1939497 10.6422358,14.6696384 10.405052,14.0140298 C9.91580856,12.66038 10.6190198,11.160996 11.9724745,10.6715575 C12.2645281,10.5660124 12.5634587,10.5161174 12.8574145,10.5161174 C13.9262292,10.5161174 14.9312486,11.1775788 15.3149469,12.2391751 C15.8041903,13.5926299 15.1009791,15.092209 13.7475244,15.5814524 Z M24.1257179,9.29678883 C24.0586549,9.44023065 23.9395996,9.54884844 23.7905977,9.60254767 C23.4831318,9.71360412 23.1424513,9.55396962 23.0313949,9.24665004 L20.2435219,1.53498181 C20.1324167,1.22746714 20.2922951,0.887030586 20.5995659,0.775925362 C20.6658974,0.751733883 20.733692,0.740516059 20.8004137,0.740516059 C21.043304,0.740516059 21.2715623,0.890834891 21.3588174,1.131823 L24.1464953,8.84353999 C24.2004384,8.99229809 24.1931712,9.15349333 24.1257179,9.29678883 Z"/>
    <path d="M12.2597483,11.4662183 C11.8164005,11.6264381 11.4616734,11.9499504 11.2614596,12.3771056 C11.0611971,12.8038706 11.039493,13.283213 11.1997128,13.726756 C11.3599326,14.1702502 11.6834449,14.524831 12.110405,14.7250447 C12.3485642,14.8366865 12.6032576,14.8929219 12.8587801,14.8929219 C13.0612862,14.8929219 13.2641825,14.8576589 13.4602505,14.7867915 C13.9035496,14.6265718 14.2583255,14.3030595 14.4585393,13.8760994 C14.6586067,13.4493344 14.6805058,12.9699919 14.5202861,12.5262538 C14.1891652,11.6108307 13.1752203,11.1350974 12.2597483,11.4662183 Z M13.7879085,13.5617565 C13.6718772,13.8096216 13.4661521,13.997447 13.2083372,14.0904574 C12.9509614,14.1836141 12.672613,14.1708355 12.4247479,14.054414 C12.1768828,13.9384315 11.9890086,13.7326576 11.896047,13.4748915 C11.8028903,13.2174668 11.8156689,12.9391185 11.9318953,12.6912534 C12.0480729,12.4433883 12.2540419,12.2555629 12.5116129,12.1625525 C12.6261322,12.1210465 12.7434804,12.101391 12.8589264,12.101391 C13.2786681,12.101391 13.6734379,12.3613031 13.8239519,12.7781183 C13.9171086,13.035543 13.90433,13.3138913 13.7879085,13.5617565 Z"/>
  </g>
</svg>
